developer_manual/design/img/categories/office.svg

<svg xmlns="http://www.w3.org/2000/svg" height="16" width="16" version="1"><path d="M2.35 1.002A.45.45 0 0 0 2 1.44V14.56c0 .232.206.44.432.44H13.57a.452.452 0 0 0 .432-.438V4.42a.458.458 0 0 0-.055-.192l-3.312-3.2a.427.427 0 0 0-.135-.026H2.43a.424.424 0 0 0-.08 0zM4 3h6v1H4V3zm0 3h5v1H4V6zm0 3h8v1H4V9zm0 3h4v1H4v-1z" /></svg>

<svg xmlns="http://www.w3.org/2000/svg" viewBox="0 0 16 16" width="16" version="1.1" height="16"><path d="m2.5 1c-0.28 0-0.5 0.22-0.5 0.5v13c0 0.28 0.22 0.5 0.5 0.5h11c0.28 0 0.5-0.22 0.5-0.5v-10.5l-3-3h-8.5zm1.5 2h6v1h-6v-1zm0 3h5v1h-5v-1zm0 3h8v1h-8v-1zm0 3h4v1h-4v-1z"/></svg>
